src/next/cmd/sc_mergetable.svg

<svg height="16" width="16" xmlns="http://www.w3.org/2000/svg" xmlns:xlink="http://www.w3.org/1999/xlink"><linearGradient id="a" gradientTransform="matrix(1.0769499 0 0 1.3043803 2.256411 -.351998)" gradientUnits="userSpaceOnUse" x1="46.048" x2="46.048" y1="128.01709" y2="16.6203"><stop offset="0" stop-color="#c7cdd7"/><stop offset="1" stop-color="#fff"/></linearGradient><linearGradient id="b" gradientUnits="userSpaceOnUse" x1="67.266975" x2="67.266975" y1="288.20084" y2="-56"><stop offset="0"/><stop offset="1" stop-color="#fff"/></linearGradient><linearGradient id="c" gradientUnits="userSpaceOnUse" x1="56" x2="56" y1="88" y2="48.994846"><stop offset="0" stop-color="#0968ef"/><stop offset="1" stop-color="#aecffc"/></linearGradient><g transform="scale(.125)"><path d="m8 8h112v104.4853h-112z" fill="url(#a)"/><path d="m0 8v4.707107 19.292893 4 44 4 24.1125 3.8875h8 32 8 32 8 32 8v-3.8875-100.1125h-120zm8 4.707107h32v19.292893h-32zm40 0h32v19.292893h-32zm40 0h32v19.292893h-32zm-80 23.292893h32v44h-32zm40 0h32v44h-32zm40 0h32v44h-32zm-80 48h32v24.1125h-32zm40 0h32v24.1125h-32zm40 0h32v24.1125h-32z" fill="url(#b)"/><path d="m0 8v104h128v-104zm8 5h112v94h-112z" fill="url(#c)"/></g></svg>

<?xml version="1.0" encoding="UTF-8" standalone="no"?>
<!-- Created with Inkscape (http://www.inkscape.org/) -->

<svg
   xmlns:a="http://ns.adobe.com/AdobeSVGViewerExtensions/3.0/"
   xmlns:dc="http://purl.org/dc/elements/1.1/"
   xmlns:cc="http://creativecommons.org/ns#"
   xmlns:rdf="http://www.w3.org/1999/02/22-rdf-syntax-ns#"
   xmlns:svg="http://www.w3.org/2000/svg"
   xmlns="http://www.w3.org/2000/svg"
   xmlns:xlink="http://www.w3.org/1999/xlink"
   xmlns:sodipodi="http://sodipodi.sourceforge.net/DTD/sodipodi-0.dtd"
   xmlns:inkscape="http://www.inkscape.org/namespaces/inkscape"
   width="16"
   height="16"
   id="svg2"
   sodipodi:version="0.32"
   inkscape:version="0.92.4 (unknown)"
   version="1.0"
   sodipodi:docname="sc_mergetable.svg"
   inkscape:output_extension="org.inkscape.output.svgz.inkscape"
   inkscape:export-filename="/home/rizmut/Dokumen/Rizmut/Github/libreoffice-style-karasa-jaga/build/next/cmd/sc_mergetable.png"
   inkscape:export-xdpi="96"
   inkscape:export-ydpi="96"
   sodipodi:modified="TRUE">
  <defs
     id="defs4">
    <linearGradient
       y2="-35.055599"
       x2="58.676701"
       y1="84.944298"
       x1="155.6768"
       gradientUnits="userSpaceOnUse"
       id="linearGradient5292">
      <stop
         id="stop5294"
         style="stop-color:#0c69ed;stop-opacity:0;"
         offset="0" />
      <stop
         offset="0.25000003"
         style="stop-color:#1b77ef;stop-opacity:1;"
         id="stop5296" />
      <stop
         offset="0.5"
         style="stop-color:#4aa3f6;stop-opacity:1;"
         id="stop5298" />
      <stop
         id="stop5300"
         style="stop-color:#89ddff;stop-opacity:1"
         offset="1" />
    </linearGradient>
    <linearGradient
       id="linearGradient3323">
      <stop
         style="stop-color:#c7cdd7;stop-opacity:1;"
         offset="0"
         id="stop3325" />
      <stop
         style="stop-color:#ffffff;stop-opacity:1;"
         offset="1"
         id="stop3327" />
    </linearGradient>
    <linearGradient
       inkscape:collect="always"
       xlink:href="#linearGradient3323"
       id="linearGradient3733"
       x1="46.048"
       y1="128.01709"
       x2="46.048"
       y2="16.6203"
       gradientUnits="userSpaceOnUse"
       gradientTransform="matrix(1.0769499,0,0,1.3043803,2.2564108,-0.3519981)" />
    <linearGradient
       id="linearGradient6330">
      <stop
         id="stop6332"
         offset="0"
         style="stop-color:#0968ef;stop-opacity:1;" />
      <stop
         id="stop6334"
         offset="1"
         style="stop-color:#aecffc;stop-opacity:1;" />
    </linearGradient>
    <radialGradient
       cx="265.3931"
       cy="-6078.353"
       r="253.01871"
       fx="369.5242"
       fy="-6078.353"
       id="path2295_1_"
       gradientUnits="userSpaceOnUse"
       gradientTransform="matrix(0.183616,0,0,-0.01462967,-0.962917,-7.25873)">
      <stop
         style="stop-color:#000000;stop-opacity:1"
         offset="0"
         id="stop8" />
      <stop
         style="stop-color:#ffffff;stop-opacity:1"
         offset="1"
         id="stop10" />
      <a:midPointStop
         style="stop-color:#000000"
         offset="0" />
      <a:midPointStop
         style="stop-color:#000000"
         offset="0.5" />
      <a:midPointStop
         style="stop-color:#FFFFFF"
         offset="1" />
    </radialGradient>
    <linearGradient
       inkscape:collect="always"
       xlink:href="#path2295_1_"
       id="linearGradient6456"
       x1="67.266975"
       y1="280.20084"
       x2="67.266975"
       y2="-64"
       gradientUnits="userSpaceOnUse"
       gradientTransform="translate(0,8)" />
    <linearGradient
       id="linearGradient6740-4">
      <stop
         style="stop-color:#004d00;stop-opacity:0;"
         offset="0"
         id="stop6742-3" />
      <stop
         id="stop6748-94"
         offset="0.5"
         style="stop-color:#004d00;stop-opacity:1;" />
      <stop
         style="stop-color:#004d00;stop-opacity:0;"
         offset="1"
         id="stop6744-9" />
    </linearGradient>
    <linearGradient
       gradientTransform="rotate(90,-90.0007,50.0022)"
       y2="-383.9975"
       x2="-23.516129"
       y1="-383.9971"
       x1="-84.002403"
       gradientUnits="userSpaceOnUse"
       id="linearGradient3711-3">
      <stop
         id="stop3713-2"
         style="stop-color:white;stop-opacity:1;"
         offset="0" />
      <stop
         id="stop3715-95"
         style="stop-color:white;stop-opacity:0;"
         offset="1" />
    </linearGradient>
    <linearGradient
       id="linearGradient4296-39">
      <stop
         id="stop4298-2"
         offset="0"
         style="stop-color:#00ff00;stop-opacity:1" />
      <stop
         id="stop4300-44"
         offset="1"
         style="stop-color:#006500;stop-opacity:1" />
    </linearGradient>
    <linearGradient
       gradientTransform="rotate(90,-90.0007,50.0022)"
       y2="-383.9971"
       x2="-12.0029"
       y1="-383.9971"
       x1="-84.002403"
       gradientUnits="userSpaceOnUse"
       id="linearGradient4770-2">
      <stop
         id="stop4772-7"
         style="stop-color:#e5ff00;stop-opacity:1"
         offset="0" />
      <stop
         id="stop4774-3"
         style="stop-color:#bff500;stop-opacity:0;"
         offset="1" />
    </linearGradient>
    <linearGradient
       gradientTransform="rotate(90,-90.0007,50.0022)"
       y2="-383.9971"
       x2="-12.0029"
       y1="-383.9971"
       x1="-84.002403"
       gradientUnits="userSpaceOnUse"
       id="linearGradient5958-14">
      <stop
         id="stop5960-3"
         style="stop-color:#008c00;stop-opacity:1"
         offset="0" />
      <stop
         id="stop5962-7"
         style="stop-color:#00bf00;stop-opacity:1"
         offset="1" />
    </linearGradient>
    <linearGradient
       id="linearGradient2399-4">
      <stop
         style="stop-color:#0968ef;stop-opacity:1;"
         offset="0"
         id="stop2401-6" />
      <stop
         style="stop-color:#aecffc;stop-opacity:1;"
         offset="1"
         id="stop2403-5" />
    </linearGradient>
    <linearGradient
       id="linearGradient4199">
      <stop
         style="stop-color:#f1f1f1;stop-opacity:1;"
         offset="0"
         id="stop4201-6" />
      <stop
         style="stop-color:#ffffff;stop-opacity:1;"
         offset="1"
         id="stop4203" />
    </linearGradient>
    <linearGradient
       inkscape:collect="always"
       xlink:href="#linearGradient2399-4"
       id="linearGradient7857"
       x1="56"
       y1="88"
       x2="56"
       y2="48.994846"
       gradientUnits="userSpaceOnUse" />
  </defs>
  <sodipodi:namedview
     id="base"
     pagecolor="#ffffff"
     bordercolor="#666666"
     borderopacity="1.0"
     gridtolerance="10000"
     guidetolerance="10"
     objecttolerance="10"
     inkscape:pageopacity="0.0"
     inkscape:pageshadow="2"
     inkscape:zoom="15.999999"
     inkscape:cx="15.744132"
     inkscape:cy="10.215043"
     inkscape:document-units="px"
     inkscape:current-layer="g979"
     width="128px"
     height="128px"
     showgrid="true"
     showborder="true"
     inkscape:window-width="1366"
     inkscape:window-height="714"
     inkscape:window-x="0"
     inkscape:window-y="28"
     showguides="true"
     inkscape:guide-bbox="true"
     inkscape:window-maximized="1"
     inkscape:snap-global="true"
     inkscape:snap-bbox="true"
     inkscape:snap-nodes="true"
     inkscape:snap-grids="true">
    <inkscape:grid
       id="GridFromPre046Settings"
       type="xygrid"
       originx="0"
       originy="0"
       spacingx="0.5"
       spacingy="0.5"
       color="#0000ff"
       empcolor="#0000ff"
       opacity="0.2"
       empopacity="0.4"
       empspacing="2"
       visible="true"
       enabled="true"
       snapvisiblegridlinesonly="true" />
  </sodipodi:namedview>
  <metadata
     id="metadata7">
    <rdf:RDF>
      <cc:Work
         rdf:about="">
        <dc:format>image/svg+xml</dc:format>
        <dc:type
           rdf:resource="http://purl.org/dc/dcmitype/StillImage" />
        <dc:title></dc:title>
      </cc:Work>
    </rdf:RDF>
  </metadata>
  <g
     inkscape:label="Layer 1"
     inkscape:groupmode="layer"
     id="layer1"
     transform="translate(0,-112)">
    <g
       id="layer2"
       inkscape:label="slice"
       style="display:none;opacity:0.33333333"
       transform="translate(125.3242,-32.00021)">
      <rect
         style="fill:#000000;fill-opacity:1;stroke:none"
         id="rect3535"
         width="128"
         height="128"
         x="0"
         y="0"
         rx="0"
         ry="0"
         inkscape:export-filename="/home/djm/lokalize.png"
         inkscape:export-xdpi="180"
         inkscape:export-ydpi="180" />
      <rect
         ry="0"
         rx="0"
         y="64"
         x="200"
         height="32"
         width="31.999603"
         id="rect3933-7"
         style="fill:#000000;fill-opacity:1;stroke:none" />
      <rect
         ry="0"
         rx="0"
         y="1.8861262e-14"
         x="200"
         height="15.999993"
         width="16"
         id="rect3537"
         style="fill:#000000;fill-opacity:1;stroke:none" />
      <rect
         ry="0"
         rx="0"
         y="24.000008"
         x="200.00002"
         height="21.99991"
         width="22.00001"
         id="rect3721"
         style="fill:#000000;fill-opacity:1;stroke:none" />
      <rect
         ry="0"
         rx="0"
         y="112.00021"
         x="199.9998"
         height="47.999996"
         width="47.999996"
         id="rect4141"
         style="fill:#000000;fill-opacity:1;stroke:none" />
    </g>
    <g
       id="layer2-07"
       inkscape:label="slice"
       style="display:none;opacity:0.33333333"
       transform="translate(-142.85759,-32.00021)">
      <rect
         style="fill:#000000;fill-opacity:1;stroke:none"
         id="rect3535-4"
         width="128"
         height="128"
         x="0"
         y="0"
         rx="0"
         ry="0"
         inkscape:export-filename="/home/djm/lokalize.png"
         inkscape:export-xdpi="180"
         inkscape:export-ydpi="180" />
      <rect
         ry="0"
         rx="0"
         y="64"
         x="200"
         height="32"
         width="31.999603"
         id="rect3933-7-5"
         style="fill:#000000;fill-opacity:1;stroke:none" />
      <rect
         ry="0"
         rx="0"
         y="1.8861262e-14"
         x="200"
         height="15.999993"
         width="16"
         id="rect3537-62"
         style="fill:#000000;fill-opacity:1;stroke:none" />
      <rect
         ry="0"
         rx="0"
         y="24.000008"
         x="200.00002"
         height="21.99991"
         width="22.00001"
         id="rect3721-5"
         style="fill:#000000;fill-opacity:1;stroke:none" />
      <rect
         ry="0"
         rx="0"
         y="112.00021"
         x="199.9998"
         height="47.999996"
         width="47.999996"
         id="rect4141-9"
         style="fill:#000000;fill-opacity:1;stroke:none" />
    </g>
    <g
       id="layer2-0"
       inkscape:label="slice"
       style="display:none;opacity:0.33333333"
       transform="translate(-437.29802,-100.93327)">
      <rect
         style="fill:#000000;fill-opacity:1;stroke:none"
         id="rect3535-6"
         width="128"
         height="128"
         x="0"
         y="0"
         rx="0"
         ry="0"
         inkscape:export-filename="/home/djm/lokalize.png"
         inkscape:export-xdpi="180"
         inkscape:export-ydpi="180" />
      <rect
         ry="0"
         rx="0"
         y="64"
         x="200"
         height="32"
         width="31.999603"
         id="rect3933-7-2"
         style="fill:#000000;fill-opacity:1;stroke:none" />
      <rect
         ry="0"
         rx="0"
         y="1.8861262e-14"
         x="200"
         height="15.999993"
         width="16"
         id="rect3537-9"
         style="fill:#000000;fill-opacity:1;stroke:none" />
      <rect
         ry="0"
         rx="0"
         y="24.000008"
         x="200.00002"
         height="21.99991"
         width="22.00001"
         id="rect3721-9"
         style="fill:#000000;fill-opacity:1;stroke:none" />
      <rect
         ry="0"
         rx="0"
         y="112.00021"
         x="199.9998"
         height="47.999996"
         width="47.999996"
         id="rect4141-0"
         style="fill:#000000;fill-opacity:1;stroke:none" />
    </g>
    <g
       id="layer2-2"
       inkscape:label="slice"
       style="display:none;opacity:0.33333333"
       transform="translate(-265.38099,-274.6666)">
      <rect
         style="fill:#000000;fill-opacity:1;stroke:none"
         id="rect3535-5"
         width="128"
         height="128"
         x="0"
         y="0"
         rx="0"
         ry="0"
         inkscape:export-filename="/home/djm/lokalize.png"
         inkscape:export-xdpi="180"
         inkscape:export-ydpi="180" />
      <rect
         ry="0"
         rx="0"
         y="64"
         x="200"
         height="32"
         width="31.999603"
         id="rect3933-7-8"
         style="fill:#000000;fill-opacity:1;stroke:none" />
      <rect
         ry="0"
         rx="0"
         y="1.8861262e-14"
         x="200"
         height="15.999993"
         width="16"
         id="rect3537-6"
         style="fill:#000000;fill-opacity:1;stroke:none" />
      <rect
         ry="0"
         rx="0"
         y="24.000008"
         x="200.00002"
         height="21.99991"
         width="22.00001"
         id="rect3721-2"
         style="fill:#000000;fill-opacity:1;stroke:none" />
      <rect
         ry="0"
         rx="0"
         y="112.00021"
         x="199.9998"
         height="47.999996"
         width="47.999996"
         id="rect4141-8"
         style="fill:#000000;fill-opacity:1;stroke:none" />
    </g>
    <g
       id="layer2-3"
       inkscape:label="slice"
       style="display:none;opacity:0.33333333"
       transform="translate(48.0002,-8.0002098)">
      <rect
         style="fill:#000000;fill-opacity:1;stroke:none"
         id="rect3535-0"
         width="128"
         height="128"
         x="0"
         y="0"
         rx="0"
         ry="0"
         inkscape:export-filename="/home/djm/lokalize.png"
         inkscape:export-xdpi="180"
         inkscape:export-ydpi="180" />
      <rect
         ry="0"
         rx="0"
         y="64"
         x="200"
         height="32"
         width="31.999603"
         id="rect3933"
         style="fill:#000000;fill-opacity:1;stroke:none" />
      <rect
         ry="0"
         rx="0"
         y="1.8861262e-14"
         x="200"
         height="15.999993"
         width="16"
         id="rect3537-2"
         style="fill:#000000;fill-opacity:1;stroke:none" />
      <rect
         ry="0"
         rx="0"
         y="24.000008"
         x="200.00002"
         height="21.99991"
         width="22.00001"
         id="rect3721-0"
         style="fill:#000000;fill-opacity:1;stroke:none" />
      <rect
         ry="0"
         rx="0"
         y="112.00021"
         x="199.9998"
         height="47.999996"
         width="47.999996"
         id="rect4141-7"
         style="fill:#000000;fill-opacity:1;stroke:none" />
    </g>
    <g
       id="layer2-35"
       inkscape:label="slice"
       style="display:none;opacity:0.33333333"
       transform="translate(-20.33019,-85.784097)">
      <rect
         style="fill:#000000;fill-opacity:1;stroke:none"
         id="rect3535-01"
         width="128"
         height="128"
         x="0"
         y="0"
         rx="0"
         ry="0"
         inkscape:export-filename="/home/djm/lokalize.png"
         inkscape:export-xdpi="180"
         inkscape:export-ydpi="180" />
      <rect
         ry="0"
         rx="0"
         y="64"
         x="200"
         height="32"
         width="31.999603"
         id="rect3933-4"
         style="fill:#000000;fill-opacity:1;stroke:none" />
      <rect
         ry="0"
         rx="0"
         y="1.8861262e-14"
         x="200"
         height="15.999993"
         width="16"
         id="rect3537-5"
         style="fill:#000000;fill-opacity:1;stroke:none" />
      <rect
         ry="0"
         rx="0"
         y="24.000008"
         x="200.00002"
         height="21.99991"
         width="22.00001"
         id="rect3721-7"
         style="fill:#000000;fill-opacity:1;stroke:none" />
      <rect
         ry="0"
         rx="0"
         y="112.00021"
         x="199.9998"
         height="47.999996"
         width="47.999996"
         id="rect4141-07"
         style="fill:#000000;fill-opacity:1;stroke:none" />
    </g>
    <g
       id="layer2-65"
       inkscape:label="slice"
       style="display:none;opacity:0.33333333"
       transform="translate(254.32849,-43.062239)">
      <rect
         style="fill:#000000;fill-opacity:1;stroke:none"
         id="rect3535-00"
         width="128"
         height="128"
         x="0"
         y="0"
         rx="0"
         ry="0"
         inkscape:export-filename="/home/djm/lokalize.png"
         inkscape:export-xdpi="180"
         inkscape:export-ydpi="180" />
      <rect
         ry="0"
         rx="0"
         y="64"
         x="200"
         height="32"
         width="31.999603"
         id="rect3933-7-6"
         style="fill:#000000;fill-opacity:1;stroke:none" />
      <rect
         ry="0"
         rx="0"
         y="1.8861262e-14"
         x="200"
         height="15.999993"
         width="16"
         id="rect3537-4"
         style="fill:#000000;fill-opacity:1;stroke:none" />
      <rect
         ry="0"
         rx="0"
         y="24.000008"
         x="200.00002"
         height="21.99991"
         width="22.00001"
         id="rect3721-3"
         style="fill:#000000;fill-opacity:1;stroke:none" />
      <rect
         ry="0"
         rx="0"
         y="112.00021"
         x="199.9998"
         height="47.999996"
         width="47.999996"
         id="rect4141-75"
         style="fill:#000000;fill-opacity:1;stroke:none" />
    </g>
    <g
       id="layer2-0-1"
       inkscape:label="slice"
       style="display:none;opacity:0.33333333"
       transform="translate(-40.11194,-111.9953)">
      <rect
         style="fill:#000000;fill-opacity:1;stroke:none"
         id="rect3535-6-1"
         width="128"
         height="128"
         x="0"
         y="0"
         rx="0"
         ry="0"
         inkscape:export-filename="/home/djm/lokalize.png"
         inkscape:export-xdpi="180"
         inkscape:export-ydpi="180" />
      <rect
         ry="0"
         rx="0"
         y="64"
         x="200"
         height="32"
         width="31.999603"
         id="rect3933-7-2-1"
         style="fill:#000000;fill-opacity:1;stroke:none" />
      <rect
         ry="0"
         rx="0"
         y="1.8861262e-14"
         x="200"
         height="15.999993"
         width="16"
         id="rect3537-9-9"
         style="fill:#000000;fill-opacity:1;stroke:none" />
      <rect
         ry="0"
         rx="0"
         y="24.000008"
         x="200.00002"
         height="21.99991"
         width="22.00001"
         id="rect3721-9-0"
         style="fill:#000000;fill-opacity:1;stroke:none" />
      <rect
         ry="0"
         rx="0"
         y="112.00021"
         x="199.9998"
         height="47.999996"
         width="47.999996"
         id="rect4141-0-0"
         style="fill:#000000;fill-opacity:1;stroke:none" />
    </g>
    <g
       id="layer2-9-1"
       inkscape:label="slice"
       style="display:none;opacity:0.33333333"
       transform="translate(489.74984,34.190471)">
      <rect
         style="fill:#000000;fill-opacity:1;stroke:none"
         id="rect3535-5-9"
         width="128"
         height="128"
         x="0"
         y="0"
         rx="0"
         ry="0"
         inkscape:export-filename="/home/djm/lokalize.png"
         inkscape:export-xdpi="180"
         inkscape:export-ydpi="180" />
      <rect
         ry="0"
         rx="0"
         y="64"
         x="200"
         height="32"
         width="31.999603"
         id="rect3933-7-9"
         style="fill:#000000;fill-opacity:1;stroke:none" />
      <rect
         ry="0"
         rx="0"
         y="1.8861262e-14"
         x="200"
         height="15.999993"
         width="16"
         id="rect3537-91"
         style="fill:#000000;fill-opacity:1;stroke:none" />
      <rect
         ry="0"
         rx="0"
         y="24.000008"
         x="200.00002"
         height="21.99991"
         width="22.00001"
         id="rect3721-4"
         style="fill:#000000;fill-opacity:1;stroke:none" />
      <rect
         ry="0"
         rx="0"
         y="112.00021"
         x="199.9998"
         height="47.999996"
         width="47.999996"
         id="rect4141-9-4"
         style="fill:#000000;fill-opacity:1;stroke:none" />
    </g>
    <g
       id="g3761">
      <g
         id="g979"
         transform="matrix(0.125,0,0,0.125,0,112)">
        <rect
           y="8"
           x="8"
           height="104.4853"
           width="112"
           id="rect3723"
           style="fill:url(#linearGradient3733);fill-opacity:1;stroke:none" />
        <path
           style="fill:url(#linearGradient6456);fill-opacity:1;stroke:none"
           d="M 0,8 V 12.707107 32 36 80 84 108.1125 112 h 8 32 8 32 8 32 8 V 108.1125 8 H 8 Z m 8,4.707107 H 40 V 32 H 8 Z m 40,0 H 80 V 32 H 48 Z m 40,0 h 32 V 32 H 88 Z M 8,36 H 40 V 80 H 8 Z m 40,0 H 80 V 80 H 48 Z m 40,0 h 32 V 80 H 88 Z M 8,84 h 32 v 24.1125 H 8 Z m 40,0 h 32 v 24.1125 H 48 Z m 40,0 h 32 v 24.1125 H 88 Z"
           id="rect6427"
           inkscape:connector-curvature="0"
           sodipodi:nodetypes="cccccccccccccccccccccccccccccccccccccccccccccccccccccccccccccccc" />
        <path
           style="fill:url(#linearGradient7857);fill-opacity:1;stroke:none"
           d="M 0,8 V 112 H 128 V 8 Z m 8,5 h 112 v 94 H 8 Z"
           id="rect7078"
           inkscape:connector-curvature="0"
           sodipodi:nodetypes="cccccccccc" />
      </g>
    </g>
  </g>
</svg>
